resources/icons/hidden.svg

<svg xmlns="http://www.w3.org/2000/svg" viewBox="0 0 24 24">
   <path id="path5108" d="M 12 4.3808594 C 5.9 4.3808594 1 12.28125 1 12.28125 C 1 12.28125 3.1105735 15.663333 6.2753906 18.001953 L 8.3261719 15.951172 A 5.2 5.2 0 0 1 12 7.0820312 A 5.2 5.2 0 0 1 15.673828 8.6035156 L 17.720703 6.5566406 C 16.054931 5.3267566 14.10229 4.3808594 12 4.3808594 z M 19.546875 8.1054688 L 16.951172 10.701172 A 5.2 5.2 0 0 1 17.199219 12.28125 A 5.2 5.2 0 0 1 10.421875 17.230469 L 8.3730469 19.279297 C 9.5087819 19.824671 10.72583 20.181641 12 20.181641 C 18.1 20.181641 23 12.28125 23 12.28125 C 23 12.28125 21.670981 10.153378 19.546875 8.1054688 z M 12 8.9804688 A 3.3 3.3 0 0 0 8.6992188 12.28125 A 3.3 3.3 0 0 0 9.6660156 14.611328 L 14.330078 9.9472656 A 3.3 3.3 0 0 0 12 8.9804688 z M 15.298828 12.353516 L 12.074219 15.578125 A 3.3 3.3 0 0 0 15.298828 12.353516 z " style="fill:#222221;fill-rule:evenodd" />
   <rect transform="rotate(-45)" y="14.781286" x="-12.523509" height="2.3864853" width="24.063728" id="rect5244" style="opacity:1;fill:#222221;fill-opacity:1;stroke:none;stroke-width:1.22474492;stroke-miterlimit:4;stroke-dasharray:none;stroke-opacity:1" />
   <path style="fill:#222221;fill-rule:evenodd" d="M 12 4.3808594 C 5.9 4.3808594 1 12.28125 1 12.28125 C 1 12.28125 3.1105735 15.663333 6.2753906 18.001953 L 8.3261719 15.951172 A 5.2 5.2 0 0 1 12 7.0820312 A 5.2 5.2 0 0 1 15.673828 8.6035156 L 17.720703 6.5566406 C 16.054931 5.3267566 14.10229 4.3808594 12 4.3808594 z M 19.546875 8.1054688 L 16.951172 10.701172 A 5.2 5.2 0 0 1 17.199219 12.28125 A 5.2 5.2 0 0 1 10.421875 17.230469 L 8.3730469 19.279297 C 9.5087819 19.824671 10.72583 20.181641 12 20.181641 C 18.1 20.181641 23 12.28125 23 12.28125 C 23 12.28125 21.670981 10.153378 19.546875 8.1054688 z M 12 8.9804688 A 3.3 3.3 0 0 0 8.6992188 12.28125 A 3.3 3.3 0 0 0 9.6660156 14.611328 L 14.330078 9.9472656 A 3.3 3.3 0 0 0 12 8.9804688 z M 15.298828 12.353516 L 12.074219 15.578125 A 3.3 3.3 0 0 0 15.298828 12.353516 z " id="path5302" />
</svg>

<svg xmlns="http://www.w3.org/2000/svg" viewBox="0 0 24 24"><path d="m12 4.380859c-6.1 0-11 7.900391-11 7.900391s2.110574 3.382083 5.275391 5.720703l2.050781-2.050781a5.2 5.2 0 0 1 3.673828-8.869141 5.2 5.2 0 0 1 3.673828 1.521484l2.046875-2.046875c-1.665772-1.229884-3.618413-2.175781-5.720703-2.175781zm7.546875 3.724609-2.595703 2.595703a5.2 5.2 0 0 1 0.248047 1.580078 5.2 5.2 0 0 1-6.777344 4.949219l-2.048828 2.048828c1.135735 0.545374 2.352783 0.902344 3.626953 0.902344 6.1 0 11-7.900391 11-7.900391s-1.329019-2.127872-3.453125-4.175781zm-7.546875 0.875a3.3 3.3 0 0 0-3.300781 3.300781 3.3 3.3 0 0 0 0.9667968 2.330078l4.664062-4.664062a3.3 3.3 0 0 0-2.330078-0.9667968zm3.298828 3.373047-3.224609 3.224609a3.3 3.3 0 0 0 3.224609-3.224609z"/><rect transform="rotate(-45)" x="-12.52351" y="14.78129" width="24.06373" height="2.386485"/><path d="m12 4.380859c-6.1 0-11 7.900391-11 7.900391s2.110574 3.382083 5.275391 5.720703l2.050781-2.050781a5.2 5.2 0 0 1 3.673828-8.869141 5.2 5.2 0 0 1 3.673828 1.521484l2.046875-2.046875c-1.665772-1.229884-3.618413-2.175781-5.720703-2.175781zm7.546875 3.724609-2.595703 2.595703a5.2 5.2 0 0 1 0.248047 1.580078 5.2 5.2 0 0 1-6.777344 4.949219l-2.048828 2.048828c1.135735 0.545374 2.352783 0.902344 3.626953 0.902344 6.1 0 11-7.900391 11-7.900391s-1.329019-2.127872-3.453125-4.175781zm-7.546875 0.875a3.3 3.3 0 0 0-3.300781 3.300781 3.3 3.3 0 0 0 0.9667968 2.330078l4.664062-4.664062a3.3 3.3 0 0 0-2.330078-0.9667968zm3.298828 3.373047-3.224609 3.224609a3.3 3.3 0 0 0 3.224609-3.224609z"/></svg>
